data/ysabeau-office.svg

<svg width="88.354" height="18.802" viewBox="0 0 88.354 18.802" xmlns="http://www.w3.org/2000/svg"><path transform="translate(0 14.756) scale(.014 -.014)" d="m293 248-266 410h91l224-366zm-15-248v293h75v-293zm62 251-41 41 227 366h79z"/><path transform="translate(8.848 14.756) scale(.014 -.014)" d="m182-9q-30 0-57.5 5.5t-49.5 15-38 19.5l20 56q24-22 59.5-35.5t68.5-13.5q41 0 64.5 20.5t23.5 48.5q0 25-15.5 40.5t-40 25.5-51.5 19.5-51.5 23-40.5 35-16 55.5q0 39 20 65t52 39 72 13q30 0 61.5-7.5t54.5-22.5l-20-53q-19 19-48 28.5t-52 9.5q-37 0-57.5-17t-20.5-42q0-23 16-38t40.5-24.5 52-19.5 52-23.5 40.5-36 16-57.5q0-26-10.5-49.5t-30.5-41.5-49-28-65-10z"/><path transform="translate(14.14 14.756) scale(.014 -.014)" d="m371-6q-38 0-60 27.5t-21 79.5l4 189q1 31-6.5 50.5t-21.5 29-34 9.5q-21 0-45-10t-41.5-31-21.5-54l-66 7q5 29 22 53t43 41.5 57 27 63 9.5q60 0 88.5-33.5t27.5-90.5l-2-210q0-22 7.5-34t21.5-12q11 0 22 5t19 15l23-32q-13-16-34-26t-45-10zm-221 0q-45 0-73 25.5t-28 66.5q0 24 10 45t34.5 37.5 68.5 28.5l166 45 5-36-154-48q-38-12-50.5-28t-12.5-34q0-25 17-37.5t41-12.5q30 0 66 19.5t80 50.5l11-24q-43-41-88-69.5t-93-28.5z"/><path transform="translate(20.496 14.756) scale(.014 -.014)" d="m249-6q-50 0-96.5 13.5t-69.5 37.5l67 36q20-20 52.5-30.5t66.5-10.5q47 0 79 21.5t48 58 16 81.5q0 52-17 89.5t-47 57.5-71 20q-37 0-77-23t-67-73l-24 32q23 35 52.5 61t64.5 40.5 76 14.5q39 0 72-13.5t58-39.5 39-62.5 14-83.5q0-60-26.5-112t-79-83.5-130.5-31.5zm-166 51v660l67 12v-636z"/><path transform="translate(27.874 14.756) scale(.014 -.014)" d="m247-9q-59 0-104 24.5t-70.5 70-25.5 107.5q0 69 28.5 120.5t77 80 109.5 28.5q74 0 111-42t37-115q0-8-0.5-17.5t-1.5-17.5h-59v35q0 54-22 81.5t-69 27.5q-44 0-77-21.5t-51-59.5-18-91q0-72 41-114.5t107-42.5q34 0 65 12t60 39l25-37q-27-25-54.5-40t-54.5-21.5-54-6.5zm-162 239 9 43h305v-43z"/><path transform="translate(34.258 14.756) scale(.014 -.014)" d="m371-6q-38 0-60 27.5t-21 79.5l4 189q1 31-6.5 50.5t-21.5 29-34 9.5q-21 0-45-10t-41.5-31-21.5-54l-66 7q5 29 22 53t43 41.5 57 27 63 9.5q60 0 88.5-33.5t27.5-90.5l-2-210q0-22 7.5-34t21.5-12q11 0 22 5t19 15l23-32q-13-16-34-26t-45-10zm-221 0q-45 0-73 25.5t-28 66.5q0 24 10 45t34.5 37.5 68.5 28.5l166 45 5-36-154-48q-38-12-50.5-28t-12.5-34q0-25 17-37.5t41-12.5q30 0 66 19.5t80 50.5l11-24q-43-41-88-69.5t-93-28.5z"/><path transform="translate(40.614 14.756) scale(.014 -.014)" d="m219-5q-62 0-101.5 41.5t-39.5 114.5v257l68 12v-247q0-59 26.5-93t74.5-34q26 0 53 10.5t51.5 33 40.5 57.5l25-23q-22-44-54.5-72.5t-69.5-42.5-74-14zm168-1-12 102v312l69 12v-414z"/><path transform="translate(51.366 14.756) scale(.014 -.014)" d="m390-9q-96 0-171.5 43t-118.5 119-43 173q0 76 26.5 139t74 108 110 69.5 134.5 24.5q96 0 171-43t118-118.5 43-173.5q0-76-26.5-139t-73.5-108-109.5-69.5-134.5-24.5zm13 54q75 0 132 35t88.5 97.5 31.5 143.5q0 88-35 153.5t-95.5 102-136.5 36.5q-73 0-129.5-35t-88.5-97-32-144q0-87 35-153t95.5-102.5 134.5-36.5z"/><path transform="translate(62.44 14.756) scale(.014 -.014)" d="m114 0v428q0 94 29 156.5t81.5 94.5 120.5 32q31 0 59.5-8t51.5-24l-29-51q-21 15-47.5 24.5t-55.5 9.5q-46 0-74-21t-42.5-54-20-70.5-5.5-70.5v-446zm-85 358 5 45 313 4-5-50z"/><path transform="translate(67.326 14.756) scale(.014 -.014)" d="m114 0v428q0 94 29 156.5t81.5 94.5 120.5 32q31 0 59.5-8t51.5-24l-29-51q-21 15-47.5 24.5t-55.5 9.5q-46 0-74-21t-42.5-54-20-70.5-5.5-70.5v-446zm-85 358 5 45 313 4-5-50z"/><path transform="translate(72.212 14.756) scale(.014 -.014)" d="m96 0v409l68 11v-420zm34 536q-21 0-34.5 13t-13.5 34 13.5 34 34.5 13q22 0 35-13t13-34-13-34-35-13z"/><path transform="translate(75.852 14.756) scale(.014 -.014)" d="m252-8q-61 0-108 26.5t-74.5 74-27.5 108.5q0 64 29 114t79 79 113 29q43 0 77-14t61-38l-29-53q-25 26-54 40t-63 14q-43 0-75-22t-48.5-59-16.5-83q0-49 20-86t55.5-57 79.5-20q31 0 61 12.5t54 35.5l23-39q-23-22-49-36t-53-20-54-6z"/><path transform="translate(81.97 14.756) scale(.014 -.014)" d="m247-9q-59 0-104 24.5t-70.5 70-25.5 107.5q0 69 28.5 120.5t77 80 109.5 28.5q74 0 111-42t37-115q0-8-0.5-17.5t-1.5-17.5h-59v35q0 54-22 81.5t-69 27.5q-44 0-77-21.5t-51-59.5-18-91q0-72 41-114.5t107-42.5q34 0 65 12t60 39l25-37q-27-25-54.5-40t-54.5-21.5-54-6.5zm-162 239 9 43h305v-43z"/></svg>

<?xml version="1.0" encoding="utf-8" ?>
<svg baseProfile="tiny" height="100%" version="1.2" width="100%" xmlns="http://www.w3.org/2000/svg" xmlns:ev="http://www.w3.org/2001/xml-events" xmlns:xlink="http://www.w3.org/1999/xlink"><defs /><g><path d="M293 248 27 658H118L342 292ZM278 0V293H353V0ZM340 251 299 292 526 658H605Z" transform="translate(0.0, 72) scale(0.072, -0.072)" /><path d="M182 -9Q152 -9 124.5 -3.5Q97 2 75.0 11.5Q53 21 37 31L57 87Q81 65 116.5 51.5Q152 38 185 38Q226 38 249.5 58.5Q273 79 273 107Q273 132 257.5 147.5Q242 163 217.5 173.0Q193 183 166.0 192.5Q139 202 114.5 215.5Q90 229 74.0 250.5Q58 272 58 306Q58 345 78.0 371.0Q98 397 130.0 410.0Q162 423 202 423Q232 423 263.5 415.5Q295 408 318 393L298 340Q279 359 250.0 368.5Q221 378 198 378Q161 378 140.5 361.0Q120 344 120 319Q120 296 136.0 281.0Q152 266 176.5 256.5Q201 247 228.5 237.0Q256 227 280.5 213.5Q305 200 321.0 177.5Q337 155 337 120Q337 94 326.5 70.5Q316 47 296.0 29.0Q276 11 247.0 1.0Q218 -9 182 -9Z" transform="translate(45.504, 72) scale(0.072, -0.072)" /><path d="M371 -6Q333 -6 311.0 21.5Q289 49 290 101L294 290Q295 321 287.5 340.5Q280 360 266.0 369.5Q252 379 232 379Q211 379 187.0 369.0Q163 359 145.5 338.0Q128 317 124 284L58 291Q63 320 80.0 344.0Q97 368 123.0 385.5Q149 403 180.0 412.5Q211 422 243 422Q303 422 331.5 388.5Q360 355 359 298L357 88Q357 66 364.5 54.0Q372 42 386 42Q397 42 408.0 47.0Q419 52 427 62L450 30Q437 14 416.0 4.0Q395 -6 371 -6ZM150 -6Q105 -6 77.0 19.5Q49 45 49 86Q49 110 59.0 131.0Q69 152 93.5 168.5Q118 185 162 197L328 242L333 206L179 158Q141 146 128.5 130.0Q116 114 116 96Q116 71 133.0 58.5Q150 46 174 46Q204 46 240.0 65.5Q276 85 320 116L331 92Q288 51 243.0 22.5Q198 -6 150 -6Z" transform="translate(72.72, 72) scale(0.072, -0.072)" /><path d="M249 -6Q199 -6 152.5 7.5Q106 21 83 45L150 81Q170 61 202.5 50.5Q235 40 269 40Q316 40 348.0 61.5Q380 83 396.0 119.5Q412 156 412 201Q412 253 395.0 290.5Q378 328 348.0 348.0Q318 368 277 368Q240 368 200.0 345.0Q160 322 133 272L109 304Q132 339 161.5 365.0Q191 391 226.0 405.5Q261 420 302 420Q341 420 374.0 406.5Q407 393 432.0 367.0Q457 341 471.0 304.5Q485 268 485 221Q485 161 458.5 109.0Q432 57 379.5 25.5Q327 -6 249 -6ZM83 45V705L150 717V81Z" transform="translate(105.40799999999999, 72) scale(0.072, -0.072)" /><path d="M247 -9Q188 -9 143.0 15.5Q98 40 72.5 85.5Q47 131 47 193Q47 262 75.5 313.5Q104 365 152.5 393.5Q201 422 262 422Q336 422 373.0 380.0Q410 338 410 265Q410 257 409.5 247.5Q409 238 408 230H349V265Q349 319 327.0 346.5Q305 374 258 374Q214 374 181.0 352.5Q148 331 130.0 293.0Q112 255 112 202Q112 130 153.0 87.5Q194 45 260 45Q294 45 325.0 57.0Q356 69 385 96L410 59Q383 34 355.5 19.0Q328 4 301.0 -2.5Q274 -9 247 -9ZM85 230 94 273H399V230Z" transform="translate(143.35199999999998, 72) scale(0.072, -0.072)" /><path d="M371 -6Q333 -6 311.0 21.5Q289 49 290 101L294 290Q295 321 287.5 340.5Q280 360 266.0 369.5Q252 379 232 379Q211 379 187.0 369.0Q163 359 145.5 338.0Q128 317 124 284L58 291Q63 320 80.0 344.0Q97 368 123.0 385.5Q149 403 180.0 412.5Q211 422 243 422Q303 422 331.5 388.5Q360 355 359 298L357 88Q357 66 364.5 54.0Q372 42 386 42Q397 42 408.0 47.0Q419 52 427 62L450 30Q437 14 416.0 4.0Q395 -6 371 -6ZM150 -6Q105 -6 77.0 19.5Q49 45 49 86Q49 110 59.0 131.0Q69 152 93.5 168.5Q118 185 162 197L328 242L333 206L179 158Q141 146 128.5 130.0Q116 114 116 96Q116 71 133.0 58.5Q150 46 174 46Q204 46 240.0 65.5Q276 85 320 116L331 92Q288 51 243.0 22.5Q198 -6 150 -6Z" transform="translate(176.18399999999997, 72) scale(0.072, -0.072)" /><path d="M219 -5Q157 -5 117.5 36.5Q78 78 78 151V408L146 420V173Q146 114 172.5 80.0Q199 46 247 46Q273 46 300.0 56.5Q327 67 351.5 89.5Q376 112 392 147L417 124Q395 80 362.5 51.5Q330 23 293.0 9.0Q256 -5 219 -5ZM387 -6 375 96V408L444 420V6Z" transform="translate(208.87199999999996, 72) scale(0.072, -0.072)" /><path d="M390 -9Q294 -9 218.5 34.0Q143 77 100.0 153.0Q57 229 57 326Q57 402 83.5 465.0Q110 528 157.5 573.0Q205 618 267.5 642.5Q330 667 402 667Q498 667 573.0 624.0Q648 581 691.0 505.5Q734 430 734 332Q734 256 707.5 193.0Q681 130 634.0 85.0Q587 40 524.5 15.5Q462 -9 390 -9ZM403 45Q478 45 535.0 80.0Q592 115 623.5 177.5Q655 240 655 321Q655 409 620.0 474.5Q585 540 524.5 576.5Q464 613 388 613Q315 613 258.5 578.0Q202 543 170.0 481.0Q138 419 138 337Q138 250 173.0 184.0Q208 118 268.5 81.5Q329 45 403 45Z" transform="translate(264.16799999999995, 72) scale(0.072, -0.072)" /><path d="M114 0V428Q114 522 143.0 584.5Q172 647 224.5 679.0Q277 711 345 711Q376 711 404.5 703.0Q433 695 456 679L427 628Q406 643 379.5 652.5Q353 662 324 662Q278 662 250.0 641.0Q222 620 207.5 587.0Q193 554 187.5 516.5Q182 479 182 446V0ZM29 358 34 403 347 407 342 357Z" transform="translate(321.11999999999995, 72) scale(0.072, -0.072)" /><path d="M114 0V428Q114 522 143.0 584.5Q172 647 224.5 679.0Q277 711 345 711Q376 711 404.5 703.0Q433 695 456 679L427 628Q406 643 379.5 652.5Q353 662 324 662Q278 662 250.0 641.0Q222 620 207.5 587.0Q193 554 187.5 516.5Q182 479 182 446V0ZM29 358 34 403 347 407 342 357Z" transform="translate(346.24799999999993, 72) scale(0.072, -0.072)" /><path d="M96 0V409L164 420V0ZM130 536Q109 536 95.5 549.0Q82 562 82 583Q82 604 95.5 617.0Q109 630 130 630Q152 630 165.0 617.0Q178 604 178 583Q178 562 165.0 549.0Q152 536 130 536Z" transform="translate(371.3759999999999, 72) scale(0.072, -0.072)" /><path d="M252 -8Q191 -8 144.0 18.5Q97 45 69.5 92.5Q42 140 42 201Q42 265 71.0 315.0Q100 365 150.0 394.0Q200 423 263 423Q306 423 340.0 409.0Q374 395 401 371L372 318Q347 344 318.0 358.0Q289 372 255 372Q212 372 180.0 350.0Q148 328 131.5 291.0Q115 254 115 208Q115 159 135.0 122.0Q155 85 190.5 65.0Q226 45 270 45Q301 45 331.0 57.5Q361 70 385 93L408 54Q385 32 359.0 18.0Q333 4 306.0 -2.0Q279 -8 252 -8Z" transform="translate(390.0959999999999, 72) scale(0.072, -0.072)" /><path d="M247 -9Q188 -9 143.0 15.5Q98 40 72.5 85.5Q47 131 47 193Q47 262 75.5 313.5Q104 365 152.5 393.5Q201 422 262 422Q336 422 373.0 380.0Q410 338 410 265Q410 257 409.5 247.5Q409 238 408 230H349V265Q349 319 327.0 346.5Q305 374 258 374Q214 374 181.0 352.5Q148 331 130.0 293.0Q112 255 112 202Q112 130 153.0 87.5Q194 45 260 45Q294 45 325.0 57.0Q356 69 385 96L410 59Q383 34 355.5 19.0Q328 4 301.0 -2.5Q274 -9 247 -9ZM85 230 94 273H399V230Z" transform="translate(421.5599999999999, 72) scale(0.072, -0.072)" /></g></svg>
